Newaita/actions/22/distribute-horizontal-left.svg

<svg height="22" viewBox="0 0 22 22" width="22" xmlns="http://www.w3.org/2000/svg"><g fill="#424242"><path d="m9.550781 1.992188v3.636718l2.273438-1.820312zm0 0"/><path d="m2.730469 6.539062c-.503907 0-.910157.40625-.910157.910157v4.546875c0 .503906.40625.910156.910157.910156h4.546875c.503906 0 .910156-.40625.910156-.910156v-4.546875c0-.503907-.40625-.910157-.910156-.910157zm1.363281 1.820313h1.820312c.25 0 .453126.203125.453126.453125v1.820312c0 .25-.203126.453126-.453126.453126h-1.820312c-.253906 0-.457031-.203126-.457031-.453126v-1.820312c0-.25.203125-.453125.457031-.453125zm0 0"/><path d="m2.273438 1.992188h.910156c.25 0 .453125.203124.453125.453124v17.28125c0 .253907-.203125.457032-.453125.457032h-.910156c-.25 0-.453126-.203125-.453126-.457032v-17.28125c0-.25.203126-.453124.453126-.453124zm0 0"/><path d="m14.554688 6.539062c-.503907 0-.910157.40625-.910157.910157v7.730469c0 .503906.40625.910156.910157.910156h4.546874c.503907 0 .910157-.40625.910157-.910156v-7.730469c0-.503907-.40625-.910157-.910157-.910157zm1.363281 1.820313h1.820312c.25 0 .453125.203125.453125.453125v5.003906c0 .25-.203125.453125-.453125.453125h-1.820312c-.253907 0-.453125-.203125-.453125-.453125v-5.003906c0-.25.199218-.453125.453125-.453125zm0 0"/><path d="m14.097656 1.992188h.910156c.25 0 .457032.203124.457032.453124v17.28125c0 .253907-.207032.457032-.457032.457032h-.910156c-.25 0-.453125-.203125-.453125-.457032v-17.28125c0-.25.203125-.453124.453125-.453124zm0 0"/><path d="m7.730469 1.992188v3.636718l-2.273438-1.820312zm0 0"/></g></svg>

<?xml version="1.0" encoding="UTF-8"?>
<svg xmlns="http://www.w3.org/2000/svg" xmlns:xlink="http://www.w3.org/1999/xlink" width="22px" height="22px" viewBox="0 0 22 22" version="1.1">
<g id="surface1">
<path style=" stroke:none;fill-rule:nonzero;fill:rgb(25.882354%,25.882354%,25.882354%);fill-opacity:1;" d="M 9.550781 1.992188 L 9.550781 5.628906 L 11.824219 3.808594 Z M 9.550781 1.992188 "/>
<path style=" stroke:none;fill-rule:nonzero;fill:rgb(25.882354%,25.882354%,25.882354%);fill-opacity:1;" d="M 2.730469 6.539062 C 2.226562 6.539062 1.820312 6.945312 1.820312 7.449219 L 1.820312 11.996094 C 1.820312 12.5 2.226562 12.90625 2.730469 12.90625 L 7.277344 12.90625 C 7.78125 12.90625 8.1875 12.5 8.1875 11.996094 L 8.1875 7.449219 C 8.1875 6.945312 7.78125 6.539062 7.277344 6.539062 Z M 4.09375 8.359375 L 5.914062 8.359375 C 6.164062 8.359375 6.367188 8.5625 6.367188 8.8125 L 6.367188 10.632812 C 6.367188 10.882812 6.164062 11.085938 5.914062 11.085938 L 4.09375 11.085938 C 3.839844 11.085938 3.636719 10.882812 3.636719 10.632812 L 3.636719 8.8125 C 3.636719 8.5625 3.839844 8.359375 4.09375 8.359375 Z M 4.09375 8.359375 "/>
<path style=" stroke:none;fill-rule:nonzero;fill:rgb(25.882354%,25.882354%,25.882354%);fill-opacity:1;" d="M 2.273438 1.992188 L 3.183594 1.992188 C 3.433594 1.992188 3.636719 2.195312 3.636719 2.445312 L 3.636719 19.726562 C 3.636719 19.980469 3.433594 20.183594 3.183594 20.183594 L 2.273438 20.183594 C 2.023438 20.183594 1.820312 19.980469 1.820312 19.726562 L 1.820312 2.445312 C 1.820312 2.195312 2.023438 1.992188 2.273438 1.992188 Z M 2.273438 1.992188 "/>
<path style=" stroke:none;fill-rule:nonzero;fill:rgb(25.882354%,25.882354%,25.882354%);fill-opacity:1;" d="M 14.554688 6.539062 C 14.050781 6.539062 13.644531 6.945312 13.644531 7.449219 L 13.644531 15.179688 C 13.644531 15.683594 14.050781 16.089844 14.554688 16.089844 L 19.101562 16.089844 C 19.605469 16.089844 20.011719 15.683594 20.011719 15.179688 L 20.011719 7.449219 C 20.011719 6.945312 19.605469 6.539062 19.101562 6.539062 Z M 15.917969 8.359375 L 17.738281 8.359375 C 17.988281 8.359375 18.191406 8.5625 18.191406 8.8125 L 18.191406 13.816406 C 18.191406 14.066406 17.988281 14.269531 17.738281 14.269531 L 15.917969 14.269531 C 15.664062 14.269531 15.464844 14.066406 15.464844 13.816406 L 15.464844 8.8125 C 15.464844 8.5625 15.664062 8.359375 15.917969 8.359375 Z M 15.917969 8.359375 "/>
<path style=" stroke:none;fill-rule:nonzero;fill:rgb(25.882354%,25.882354%,25.882354%);fill-opacity:1;" d="M 14.097656 1.992188 L 15.007812 1.992188 C 15.257812 1.992188 15.464844 2.195312 15.464844 2.445312 L 15.464844 19.726562 C 15.464844 19.980469 15.257812 20.183594 15.007812 20.183594 L 14.097656 20.183594 C 13.847656 20.183594 13.644531 19.980469 13.644531 19.726562 L 13.644531 2.445312 C 13.644531 2.195312 13.847656 1.992188 14.097656 1.992188 Z M 14.097656 1.992188 "/>
<path style=" stroke:none;fill-rule:nonzero;fill:rgb(25.882354%,25.882354%,25.882354%);fill-opacity:1;" d="M 7.730469 1.992188 L 7.730469 5.628906 L 5.457031 3.808594 Z M 7.730469 1.992188 "/>
</g>
</svg>
